X:145
T: Kerry #2
S: "Music from Ireland 3" (Bulmer & Sharpley)
N: last measure corrected from [A2 A2]
Z: B.Black
R: polka
M: 2/4
L: 1/8
K: Edor
B2 B>A|FA DA|B2 B>A|B/c/d ed|
B2 B>A|FA D>E|FD AF|E2 E2 :|
Be e>f|ed BA|Be e>f|ed Bc|
de dB|AF D>E|AF dB|E2 E2 :|
